X: 10877
T: Droneless
R: jig
M: 6/8
K: Dminor
|:"Dm"d3 dcA|"C"c3c2 d|"Am"c3 c2 d|"Gm"BAG G3|d3 "Bb"dcA|
[1 "C"e3e2 f|"Am"e3 edc|"Dm"d2 A A2 A:|2 "Am"e2 A c2 d|"C"e2 G c2 d|"Dm"d6||
|:"Dm"Ade fed|"Bb"Bfe fed|"C"Ged edc|"Am"Aed e3|
"Dm"Ade fed|"Bb"AcA fAc|"C"Gcd edc|1 "Dm"d6:|2 "Am"e3efe||

